X: 29621
T: North Star, The
R: hornpipe
M: 4/4
K: Cdorian
K: Bb Major
|:(3FGA|B>fd>B f>Bd>B|e>Bg>B f>Bd>B|F2 (3BdB d>B (3dcB|A>cB>G =E>FG>A|
B2 d>B f>B (3dcB|e>Bg>B f2 d>B|A2 (3gfe d2 (3cBA|(3BcB d2 B2:|
|:(3bag|(3fgf d>f c>fd>f|b>ab>f (3efe (3dcB|DFB[Dd] EG (3dcB|(3ABA F2 F2 (3FGA|
B>d (3fed c>e (3gfe|d>fg>a b2 (3bag|g>fe>d e>FG>A|B2 (3AGA B2:|

